X:11038
T:Moccasin Reel
C:Andy De Jarlis
M:2/4
L:1/16
K:D
ag|fd2d d2 (3ed=c|defg abag|e=c2=c =cd=cB|=cdef geag|!
fd2d d2(3ed=c|defg abag|fdeg f2ec|dd2d d2:|!
|:(3ABc|d2de dAFA|Bcdc BAFA|e2ee efed|Be2e e2(3ABc|!
d2de dAFA|Bcdc BAFD|C^B,CD EFGE|FDCE D2:|!
